collections/phosporicons/regular/buildings.svg

<svg xmlns="http://www.w3.org/2000/svg" viewBox="0 0 256 256" width="20" height="20"><path fill="none" d="M0 0h256v256H0z"/><path fill="none" stroke="#000" stroke-linecap="round" stroke-linejoin="round" stroke-width="16" d="M16 215.983h224m-96.006 0v-176a8 8 0 00-8-8h-96a8 8 0 00-8 8v176m192 0v-112a8 8 0 00-8-8h-72m-80-24h32m-16 64h32m-48 40h32m80 0h16m-16-40h16"/></svg>

<svg xmlns="http://www.w3.org/2000/svg" viewBox="0 0 256 256" width="20" height="20"><path fill="none" d="M0 0h256v256H0z"/><path fill="none" stroke="#000" stroke-linecap="round" stroke-linejoin="round" stroke-width="16" d="M16 216h224M144 216V40a8 8 0 00-8-8H40a8 8 0 00-8 8v176M224 216V104a8 8 0 00-8-8h-72M64 72h32M80 136h32M64 176h32M176 176h16M176 136h16"/></svg>
